app/dist/common/images/jinzhou-port-coltd.svg

<svg height="18" viewBox="0 0 18 18" width="18" xmlns="http://www.w3.org/2000/svg"><path d="m0 0h18v18h-18z" fill="#f0f3fa"/><path d="m5.75 7.34-2.75 2.83 2.75 2.83 1.25-1.29-1.5-1.54 1.5-1.54zm6.5 5.66-1.25-1.29 1.5-1.54-1.5-1.54 1.25-1.29 2.75 2.83zm-4.75-4.89-1.25-1.28 2.75-2.83 2.75 2.83-1.25 1.27-1.5-1.53z" fill="#000b71"/><path d="m9 11.77-.99 1.02-.99-1 1.98-2.03 2 2-1 1.03-1-1.01z" fill="#d21f18"/></svg>

<!-- by TradingView --><svg width="18" height="18" viewBox="0 0 18 18" xmlns="http://www.w3.org/2000/svg"><path fill="#F0F3FA" d="M0 0h18v18H0z"/><path d="M5.75 7.34 3 10.17 5.75 13 7 11.71l-1.5-1.54L7 8.63 5.75 7.34ZM12.25 13 11 11.71l1.5-1.54L11 8.63l1.25-1.29L15 10.17 12.25 13ZM7.5 8.11 6.25 6.83 9 4l2.75 2.83L10.5 8.1 9 6.57 7.5 8.11Z" fill="#000B71"/><path d="m9 11.77-.99 1.02-.99-1L9 9.76l2 2-1 1.03-1-1.01Z" fill="#D21F18"/></svg>
